X: 34950
T: Rocky Road To Dublin, The
R: slip jig
M: 9/8
K: Eminor
e=fe d2 B A3|E2 A A2 A Bcd|e=fe d2 B A2 c|B2 A G2 A Bcd:|
e2 a a2 f g3|e2 a a2 A Bcd|1 e2 a a2 f g2 e|d2 B G2 A Bcd:|2 efg fga gfe|d2 B G2 A Bcd||
ecA ecA A2 a|ecA ecA Bcd|1 ecA ecA a2 c|d2 B G2 A Bcd:|2 efg fga gfe|d2 B G2 A Bcd||

